public/assets/icons/etherscan_ol.svg

<svg fill="none" height="123" viewBox="0 0 123 123" width="123" xmlns="http://www.w3.org/2000/svg"><path d="m25.79 58.4149c.0001-.6792.1344-1.3516.3951-1.9788.2607-.6271.6427-1.1965 1.1241-1.6756.4815-.4791 1.0527-.8584 1.6811-1.1161s1.3015-.3887 1.9807-.3855l8.59.028c1.3695 0 2.683.5441 3.6514 1.5125.9685.9684 1.5126 2.2819 1.5126 3.6515v32.48c.967-.287 2.209-.593 3.568-.913.944-.2217 1.7853-.7559 2.3875-1.516.6021-.7601.9297-1.7013.9295-2.671v-40.29c0-1.3697.544-2.6833 1.5124-3.6519s2.2819-1.5128 3.6516-1.5131h8.607c1.3696.0003 2.6831.5445 3.6515 1.5131s1.5125 2.2822 1.5125 3.6519v37.393s2.155-.872 4.254-1.758c.7797-.3297 1.4451-.8818 1.9132-1.5873.4681-.7054.718-1.5331.7188-2.3797v-44.578c0-1.3694.5439-2.6828 1.5121-3.6512s2.2814-1.5125 3.6508-1.5128h8.6071c1.3696 0 2.683.544 3.6515 1.5125.9684.9684 1.5125 2.2819 1.5125 3.6515v36.709c7.462-5.408 15.024-11.912 21.025-19.733.871-1.1352 1.447-2.4683 1.677-3.8802s.107-2.8589-.358-4.2118c-2.778-7.9922-7.193-15.3166-12.964-21.5044-5.771-6.1877-12.7701-11.10265-20.5495-14.43018-7.7794-3.32752-16.1678-4.994382-24.6284-4.893904-8.4606.100477-16.807 1.966084-24.5051 5.477414-7.6982 3.51134-14.5786 8.59107-20.2009 14.91417-5.6223 6.323-9.86268 13.7502-12.44979 21.8062-2.587103 8.0559-3.4639587 16.5632-2.574459 24.9775.889499 8.4143 3.525779 16.5502 7.740109 23.8872.73415 1.2656 1.81424 2.2955 3.11334 2.9686s2.7633.9615 4.2207.8314c1.628-.143 3.655-.346 6.065-.629 1.0491-.1191 2.0177-.62 2.7212-1.4073.7036-.7873 1.0929-1.8059 1.0938-2.8617z" fill="#21325b"/><path d="m25.6021 110.51c9.0723 6.6 19.7938 10.562 30.9781 11.447 11.1844.884 22.3955-1.342 32.3929-6.434s18.3909-12.85 24.2529-22.4162c5.861-9.5663 8.962-20.5678 8.959-31.7871 0-1.4-.065-2.785-.158-4.162-22.219 33.138-63.2439 48.6303-96.423 53.3473" fill="#979695"/></svg>

<svg width="123" height="123" viewBox="0 0 123 123" fill="none" xmlns="http://www.w3.org/2000/svg">
<path d="M25.79 58.4149C25.7901 57.7357 25.9244 57.0633 26.1851 56.4361C26.4458 55.809 26.8278 55.2396 27.3092 54.7605C27.7907 54.2814 28.3619 53.9021 28.9903 53.6444C29.6187 53.3867 30.2918 53.2557 30.971 53.2589L39.561 53.2869C40.9305 53.2869 42.244 53.831 43.2124 54.7994C44.1809 55.7678 44.725 57.0813 44.725 58.4509V90.9309C45.692 90.6439 46.934 90.3379 48.293 90.0179C49.237 89.7962 50.0783 89.262 50.6805 88.5019C51.2826 87.7418 51.6102 86.8006 51.61 85.8309V45.5409C51.61 44.1712 52.154 42.8576 53.1224 41.889C54.0908 40.9204 55.4043 40.3762 56.774 40.3759H65.381C66.7506 40.3762 68.0641 40.9204 69.0325 41.889C70.0009 42.8576 70.545 44.1712 70.545 45.5409V82.9339C70.545 82.9339 72.7 82.0619 74.799 81.1759C75.5787 80.8462 76.2441 80.2941 76.7122 79.5886C77.1803 78.8832 77.4302 78.0555 77.431 77.2089V32.6309C77.431 31.2615 77.9749 29.9481 78.9431 28.9797C79.9113 28.0113 81.2245 27.4672 82.5939 27.4669H91.201C92.5706 27.4669 93.884 28.0109 94.8525 28.9794C95.8209 29.9478 96.365 31.2613 96.365 32.6309V69.3399C103.827 63.9319 111.389 57.4279 117.39 49.6069C118.261 48.4717 118.837 47.1386 119.067 45.7267C119.297 44.3148 119.174 42.8678 118.709 41.5149C115.931 33.5227 111.516 26.1983 105.745 20.0105C99.974 13.8228 92.9749 8.90785 85.1955 5.58032C77.4161 2.2528 69.0277 0.585938 60.5671 0.686416C52.1065 0.786893 43.7601 2.6525 36.062 6.16383C28.3638 9.67517 21.4834 14.7549 15.8611 21.078C10.2388 27.401 5.99842 34.8282 3.41131 42.8842C0.824207 50.9401 -0.0526487 59.4474 0.836851 67.8617C1.72635 76.276 4.36263 84.4119 8.57696 91.7489C9.31111 93.0145 10.3912 94.0444 11.6903 94.7175C12.9894 95.3906 14.4536 95.679 15.911 95.5489C17.539 95.4059 19.566 95.2029 21.976 94.9199C23.0251 94.8008 23.9937 94.2999 24.6972 93.5126C25.4008 92.7253 25.7901 91.7067 25.791 90.6509L25.79 58.4149Z" fill="#21325B"/>
<path d="M25.6021 110.51C34.6744 117.11 45.3959 121.072 56.5802 121.957C67.7646 122.841 78.9757 120.615 88.9731 115.523C98.9705 110.431 107.364 102.673 113.226 93.1068C119.087 83.5405 122.188 72.539 122.185 61.3197C122.185 59.9197 122.12 58.5347 122.027 57.1577C99.808 90.2957 58.7831 105.788 25.604 110.505" fill="#979695"/>
</svg>
